!!!Melodie: eigene
!!!Typ: Lied
**kern	**silbe	**silbe	**silbe	**silbe	**silbe	**silbe	**silbe	**silbe	**silbe	**silbe
*clefG2	*lang:DE	*lang:DE	*lang:DE	*lang:DE	*lang:DE	*lang:DE	*lang:DE	*lang:DE	*lang:DE	*lang:DE
*k[f#]	*	*	*	*	*	*	*	*	*	*
*M3/4	*	*	*	*	*	*	*	*	*	*
4g	Lo#	Mei#	Lo#	der	Lo#	der	Lo#	der	Lo#	al#
4g	#be	#ne	#be	dich	#be	dir	#be	aus	#be	#les
4dd	den	ge#	den	auf	den	Ge#	den	dem	den	was
=	=	=	=	=	=	=	=	=	=	=
4.b	Her#	#lie#	Her#	A#	Her#	#sund#	Her#	Him#	Her#	A#
8a	#ren,	#be#	#ren,	#de#	#ren,	#heit	#ren,	#mel	#ren,	#tem
4g	den	#te	der	#lers	der	ver#	der	mit	was	hat,
=	=	=	=	=	=	=	=	=	=	=
4.f#	mäch#	See#	al#	Fit#	künst#	#lie#	dei#	Strö#	in	lo#
8e	#ti#	#le,	#les	#ti#	#lich	#hen,	#nen	#men	mir	#be
4d	#gen	das	so	#chen	und	dich	Stand	der	ist,	mit
=	=	=	=	=	=	=	=	=	=	=
4e	Kö#	ist	herz#	si#	fein	freund#	sicht#	Lie#	lo#	Ab#
4f#	#nig	mein	#lich	#cher	dich	#lich	#bar	#be	#be	#ra#
4g	der	Be#	re#	ge#	be#	ge#	ge#	ge#	den	#hams
=	=	=	=	=	=	=	=	=	=	=
2a	Eh#	#geh#	#gie#	#füh#	#rei#	#lei#	#seg#	#reg#	Na#	Sa#
4;g	#ren,	#ren.	#ret,	#ret,	#tet,	#tet!	#net,	#net:	#men!	#men!
=:|	=	=	=	=	=	=	=	=	=	=
4dd	.	Kom#	.	der	.	In	.	den#	.	Er
4dd	.	#met	.	dich	.	wie	.	#ke	.	ist
4dd	.	zu	.	er#	.	viel	.	da#	.	dein
=	=	=	=	=	=	=	=	=	=	=
2.;ee	.	hauf,	.	#hält,	.	Not	.	#ran,	.	Licht;
=	=	=	=	=	=	=	=	=	=	=
4dd	.	Psal#	.	wie	.	hat	.	was	.	See#
4dd	.	#ter	.	es	.	nicht	.	der	.	#le,
4dd	.	und	.	dir	.	der	.	All#	.	ver#
=	=	=	=	=	=	=	=	=	=	=
4.dd	.	Har#	.	sel#	.	gnä#	.	#mäch#	.	#giss
8cc	.	#fe,	.	#ber	.	#di#	.	#ti#	.	es
4b	.	wacht	.	ge#	.	#ge	.	#ge	.	ja
=	=	=	=	=	=	=	=	=	=	=
2.;a	.	auf!	.	#fällt;	.	Gott	.	kann,	.	nicht,
=	=	=	=	=	=	=	=	=	=	=
4d	.	Las#	.	hast	.	ü#	.	der	.	Lo#
4e	.	#set	.	du	.	#ber	.	dir	.	#ben#
4f#	.	die	.	nicht	.	dir	.	mit	.	#de
=	=	=	=	=	=	=	=	=	=	=
4g	.	Mu#	.	die#	.	Flü#	.	Lie#	.	schlie#
4a	.	#si#	.	#ses	.	#gel	.	#be	.	#ße
4b	.	#cam	.	ver#	.	ge#	.	be#	.	mit
=	=	=	=	=	=	=	=	=	=	=
2a	.	hö#	.	#spü#	.	#brei#	.	#geg#	.	A#
4;g	.	#ren.	.	#ret?	.	#tet?	.	#net,	.	#men,
==	==	==	==	==	==	==	==	==	==	==
*-	*-	*-	*-	*-	*-	*-	*-	*-	*-	*-
